static/images/logos/signet-green.svg

<svg fill="none" height="352" viewBox="0 0 220 352" width="220" xmlns="http://www.w3.org/2000/svg"><g fill="#084945"><path d="m106.225 238.225c-8.1525 8.197-17.8497 14.696-28.5307 19.121-10.6809 4.424-22.1333 6.686-33.6943 6.654v88c97.205 0 176-78.795 176-176h-88c.032 11.561-2.23 23.013-6.654 33.694-4.425 10.681-10.924 20.379-19.121 28.531z"/><path d="m113.775 113.775c8.152-8.197 17.85-14.6962 28.531-19.1206 10.681-4.4243 22.133-6.6861 33.694-6.6544v-88c-97.2048 0-176 78.7952-176 176h88c-.0317-11.561 2.2301-23.013 6.6544-33.694 4.4244-10.681 10.9236-20.379 19.1206-28.531z"/></g></svg>

<svg width="220" height="352" viewBox="0 0 220 352" fill="none" xmlns="http://www.w3.org/2000/svg">
    <path d="M106.225 238.225C98.0725 246.422 88.3753 252.921 77.6943 257.346C67.0134 261.77 55.561 264.032 44 264V352C141.205 352 220 273.205 220 176H132C132.032 187.561 129.77 199.013 125.346 209.694C120.921 220.375 114.422 230.073 106.225 238.225Z"
          fill="#084945"/>
    <path d="M113.775 113.775C121.927 105.578 131.625 99.0788 142.306 94.6544C152.987 90.2301 164.439 87.9683 176 88V0C78.7952 0 0 78.7952 0 176H88C87.9683 164.439 90.2301 152.987 94.6544 142.306C99.0788 131.625 105.578 121.927 113.775 113.775Z"
          fill="#084945"/>
</svg>
